public/avatar/item0/60.svg

<svg xmlns:xlink="http://www.w3.org/1999/xlink" height="58.65" width="49.15" xmlns="http://www.w3.org/2000/svg"><use height="29.8" transform="translate(9.75 22.05)" width="28.25" xlink:href="#a"/><defs><g id="a"><path d="m-.5 16.4 1-1.95 1.2-2.7 2-4.05 1.7.3-1.75 3.35-3.1 5.05H-.5m3.3-.05L3.45 15q2.4-5.6 2.85-6.15v-.1q.85 0 1.25.35.2.25 0 .95l-1.65 3-2.2 3.25-.9.05M-5.25 8.6l-.1.15 1.25-1 2.05-.35.55.1-3.45 6.25-1.65 2.45h-.05l-1.85-.6 3.25-7" fill="#f2fcfc" fill-rule="evenodd" transform="translate(14.35 -3.95)"/><path d="M-.65 6.75q7.7.25 10.55 3.3l1.15 1.8q.7 1.85.3 4.35-2.1 1.05-10.8 1.15-9.1.1-12.65-1.2l-.1-.15v-.65q.15-4.95 5.05-7.2 1.45-.65 3.15-1l1.15-.2.65-.1 1.55-.1m-10.25 4.2-.5.85-.7 1.15-.85.85.5-1.8q2.55-3.4 4.4-4.6 1.3-.9 7.4-2.25l.8-.2 5.45.5h.1-.1l-5.45-.5-4.25.3-.45.1h-.05l-.1.05-.7.1-.85.2-.85.3-1.55.7-.7.5q-1.55.95-2.35 2.55-1.6 2.6-1.7 6.6v.6q0 1.35 4.75 2.6l.25.1.2.05 3.55.6.15-.3.65-.85q.85-.9 2.65-1.2 4.65-.75 6.15 1.4l.05.05.45 1.05 1.5-.2q4.95-.95 5.8-2.45l.1-.45-.05.05q.95-8.7-5.1-11.35-.8-.35-2-.6 3 1.05 2.95 1.35-8.1-2.75-15.6.4l-.45.25q-1.3.75-3.05 2.6l-.45.9m16.6-5.5-6.35-.3 6.35.3M-.5 16.4H.55l2.25-.05.9-.05 7.3-.85q.15-5.05-5.1-7.3Q3.8 7.25 1.6 7l-2.4-.2-2.25.35q-1.8.4-3.8 1.45-4.95 2.5-4.75 6.95 1.75 1 11.1.85m5 5-.3-1.15-.05-.1Q3.25 19 .3 19.05q-3.05 0-3.85 1.4l-.2.85-.7.35q-.45.2-.75.5l.25-.85-3.85-.95q-5.55-1.6-5.55-3.35-.05-12.6 13.2-13l.5-.05h.8Q7.85 3.8 11.2 7.2q3.5 3.65 2.5 10.65 0 .65-.65 1.15-1.5 1.3-6.55 2.2l-.8.15.15.9q-.5-.5-1.35-.85" fill-rule="evenodd" transform="translate(14.35 -3.95)"/><path d="M-.65 6.75q9.8 0 11.75 5.25-.1-1.75-.55-2.4-.6-.95-2.95-2.3-6.2-2.2-12.7-.6-1.3.3-2.3.75l.45-.25q7.5-3.15 15.6-.4.05-.3-2.95-1.35 1.2.25 2 .6 6.05 2.65 5.1 11.35-3.85 1.45-7.85 1.95-1.5-2.15-6.15-1.4-1.8.3-2.65 1.2-4.7-.75-9.55-2.8.1-4 1.7-6.6l-.35.95-.55 1.5.15-.2-.5 1.8.85-.85-.05 1.5q.15-1.45.75-2.65l.5-.85Q-8.9 8-4 7.15q-1.7.35-3.15 1-4.9 2.25-5.05 7.2v.75l.1.05q3.55 1.3 12.65 1.2 8.7-.1 10.8-1.15.4-2.5-.3-4.35l-1.15-1.8Q7.05 7-.65 6.75m4.8 13.4q-.65-.75-2.6-1l-.15 1.7-.75-.05-4.4.5.2-.85q.8-1.4 3.85-1.4 2.95-.05 3.85 1.1" fill="#777474" fill-rule="evenodd" transform="translate(14.35 -3.95)"/><path d="M-7.4 7.45q1-.45 2.3-.75 6.5-1.6 12.7.6 2.35 1.35 2.95 2.3.45.65.55 2.4Q9.15 6.75-.65 6.75l-1.55.1-.65.1-1.15.2q-4.9.85-6.9 3.8l.45-.9Q-8.7 8.2-7.4 7.45m-4 4.35q-.6 1.2-.75 2.65l.05-1.5.7-1.15m-2 4.55q4.85 2.05 9.55 2.8l-.65.85-.15.3-3.55-.6-.2-.05-.25-.1q-4.75-1.25-4.75-2.6v-.6m18.35 3q4-.5 7.85-1.95l.05-.05-.1.45q-.85 1.5-5.8 2.45l-1.5.2L5 19.4l-.05-.05m-.8.8.05.1.3 1.15q-1.2-.5-3.1-.55l.15-1.7q1.95.25 2.6 1" fill="#494646" fill-rule="evenodd" transform="translate(14.35 -3.95)"/><path d="M-4.7 5.4q-1.7.35-3.2 1.05l-1.45.75.7-.5L-7.1 6l.85-.3.85-.2.7-.1" fill="#ccc" fill-rule="evenodd" transform="translate(14.35 -3.95)"/><path d="m-12.45 12-.15.2.55-1.5.35-.95q.8-1.6 2.35-2.55l1.45-.75q1.5-.7 3.2-1.05l.1-.05h.05l.45-.1 4.25-.3-.8.2q-6.1 1.35-7.4 2.25-1.85 1.2-4.4 4.6m10.4 10.55q-.65.65-.7 2.1l.1 1.35-3.15 1.35q.9-4.05 3.75-4.8" fill="#fff" fill-rule="evenodd" transform="translate(14.35 -3.95)"/><path d="M1.4 20.85q1.9.05 3.1.55.85.35 1.35.85l.45.5q1.55 2.45 1.1 7.55l-.05.2q-.6 2-3.5 2.85l-5.5.4q-5.2-.85-5.65-4.05l-.1-1.25q0-4.55 2.2-6.3.3-.3.75-.5l.7-.35 4.4-.5.75.05m5 7.45q0-3-1-4.75l-.2-.2-.4-.35q-1.3-1-4.25-1-3.5-.05-4.4.7-1.4.7-2.05 3.05-.45 1.65-.4 3.1l.05.35v.95q2.2 3.05 7.55 2.5 2.3-.1 3.6-.9 1.7-.8 1.75-2.3v-.25l-.25-.9m-13.05 1.5.35-.95-.35.95m13.6.35-.3-.95.3.95" fill="#050505" fill-rule="evenodd" transform="translate(14.35 -3.95)"/><path d="M4.8 23q-.7-.5-1.9-.75.4 2.55.4 4.35l-1 .1-5.45.25q-.8.2-1.3.5-1.3.5-1.85 1.4.55-.9 1.85-1.4-1.45.6-1.8 1.6v.15l-.05-.35q-.05-1.45.4-3.1.65-2.35 2.05-3.05.9-.75 4.4-.7 2.95 0 4.25 1m-6.85-.45q-2.85.75-3.75 4.8L-2.65 26l-.1-1.35q.05-1.45.7-2.1" fill="#bcbcbc" fill-rule="evenodd" transform="translate(14.35 -3.95)"/><path d="m2.3 26.7 1-.1q0-1.8-.4-4.35 1.2.25 1.9.75l.4.35.2.2q1 1.75 1 4.75-.8-1.35-3.7-1.55l-.4-.05" fill="#727272" fill-rule="evenodd" transform="translate(14.35 -3.95)"/><path d="m2.3 26.7.4.05q2.9.2 3.7 1.55l.25.9v.25q-.05 1.5-1.75 2.3-1.3.8-3.6.9-5.35.55-7.55-2.5v-1.1q.35-1 1.8-1.6.5-.3 1.3-.5l5.45-.25m4.35 2.5-.25-.5q-1.2-1.65-4.55-1.9L.2 26.7q-3 0-4.65.75Q-2.8 26.7.2 26.7l1.65.1q3.35.25 4.55 1.9l.25.5" fill="#514d4d" fill-rule="evenodd" transform="translate(14.35 -3.95)"/><path d="m.55 16.4 3.1-5.05L5.4 8l-1.7-.3-2 4.05-1.2 2.7-1 1.95q-9.35.15-11.1-.85-.2-4.45 4.75-6.95 2-1.05 3.8-1.45l3-.25L1.6 7q2.2.25 4.3 1.15 5.25 2.25 5.1 7.3l-7.3.85 2.2-3.25 1.65-3q.2-.7 0-.95-.4-.35-1.25-.35v.1Q5.85 9.4 3.45 15l-.65 1.35-2.25.05m-5.8-7.8-3.25 7 1.85.6h.05l1.65-2.45L-1.5 7.5l-.55-.1-2.05.35-1.25 1 .1-.15" fill="#02d1b8" fill-opacity=".29" fill-rule="evenodd" transform="translate(14.35 -3.95)"/><path d="M-6.3 28.85q.55-.9 1.85-1.4Q-2.8 26.7.2 26.7l1.65.1q3.35.25 4.55 1.9l.25.5.3.95m-13.25-1.3-.35.95" fill="none" stroke="#050505" stroke-linecap="round" stroke-linejoin="round" transform="translate(14.35 -3.95)"/></g></defs></svg>

<?xml version="1.0" encoding="UTF-8" standalone="no"?>
<svg xmlns:xlink="http://www.w3.org/1999/xlink" height="58.65px" width="49.15px" xmlns="http://www.w3.org/2000/svg">
  <g transform="matrix(1.0, 0.0, 0.0, 1.0, 24.1, 18.1)">
    <use height="29.8" transform="matrix(1.0, 0.0, 0.0, 1.0, -14.35, 3.95)" width="28.25" xlink:href="#shape0"/>
  </g>
  <defs>
    <g id="shape0" transform="matrix(1.0, 0.0, 0.0, 1.0, 14.35, -3.95)">
      <path d="M-0.5 16.4 L0.5 14.45 1.7 11.75 3.7 7.7 5.4 8.0 3.65 11.35 0.55 16.4 0.1 16.4 -0.5 16.4 M2.8 16.35 L3.45 15.0 Q5.85 9.4 6.3 8.85 L6.3 8.75 Q7.15 8.75 7.55 9.1 7.75 9.35 7.55 10.05 L5.9 13.05 3.7 16.3 2.8 16.35 M-5.25 8.6 L-5.35 8.75 -4.1 7.75 -2.05 7.4 -1.5 7.5 -4.95 13.75 -6.6 16.2 -6.65 16.2 -8.5 15.6 -5.25 8.6" fill="#f2fcfc" fill-rule="evenodd" stroke="none"/>
      <path d="M-0.65 6.75 Q7.05 7.0 9.9 10.05 L11.05 11.85 Q11.75 13.7 11.35 16.2 9.25 17.25 0.55 17.35 -8.55 17.45 -12.1 16.15 L-12.2 16.0 -12.2 15.35 Q-12.05 10.4 -7.15 8.15 -5.7 7.5 -4.0 7.15 L-2.85 6.95 -2.2 6.85 -0.65 6.75 M-10.9 10.95 L-11.4 11.8 -12.1 12.95 -12.95 13.8 -12.45 12.0 Q-9.9 8.6 -8.05 7.4 -6.75 6.5 -0.65 5.15 L0.15 4.95 5.6 5.45 5.7 5.45 5.6 5.45 0.15 4.95 -4.1 5.25 -4.55 5.35 -4.6 5.35 -4.7 5.4 -5.4 5.5 -6.25 5.7 -7.1 6.0 -8.65 6.7 -9.35 7.2 Q-10.9 8.15 -11.7 9.75 -13.3 12.35 -13.4 16.35 L-13.4 16.95 Q-13.4 18.3 -8.65 19.55 L-8.4 19.65 -8.2 19.7 -4.65 20.3 -4.5 20.0 -3.85 19.15 Q-3.0 18.25 -1.2 17.95 3.45 17.2 4.95 19.35 L5.0 19.4 5.45 20.45 6.95 20.25 Q11.9 19.3 12.75 17.8 L12.85 17.35 12.8 17.4 Q13.75 8.7 7.7 6.05 6.9 5.7 5.7 5.45 8.7 6.5 8.65 6.8 0.55 4.05 -6.95 7.2 L-7.4 7.45 Q-8.7 8.2 -10.45 10.05 L-10.9 10.95 M5.7 5.45 L-0.65 5.15 5.7 5.45 M-0.5 16.4 L0.1 16.4 0.55 16.4 2.8 16.35 3.7 16.3 11.0 15.45 Q11.15 10.4 5.9 8.15 3.8 7.25 1.6 7.0 L-0.8 6.8 -3.05 7.15 Q-4.85 7.55 -6.85 8.6 -11.8 11.1 -11.6 15.55 -9.85 16.55 -0.5 16.4 M4.5 21.4 L4.2 20.25 4.15 20.15 Q3.25 19.0 0.3 19.05 -2.75 19.05 -3.55 20.45 L-3.75 21.3 -4.45 21.65 Q-4.9 21.85 -5.2 22.15 L-4.95 21.3 -8.8 20.35 Q-14.35 18.75 -14.35 17.0 -14.4 4.4 -1.15 4.0 L-0.65 3.95 0.15 3.95 Q7.85 3.8 11.2 7.2 14.7 10.85 13.7 17.85 13.7 18.5 13.05 19.0 11.55 20.3 6.5 21.2 L5.7 21.35 5.85 22.25 Q5.35 21.75 4.5 21.4" fill="#000000" fill-rule="evenodd" stroke="none"/>
      <path d="M-0.65 6.75 Q9.15 6.75 11.1 12.0 11.0 10.25 10.55 9.6 9.95 8.65 7.6 7.3 1.4 5.1 -5.1 6.7 -6.4 7.0 -7.4 7.45 L-6.95 7.2 Q0.55 4.05 8.65 6.8 8.7 6.5 5.7 5.45 6.9 5.7 7.7 6.05 13.75 8.7 12.8 17.4 8.95 18.85 4.95 19.35 3.45 17.2 -1.2 17.95 -3.0 18.25 -3.85 19.15 -8.55 18.4 -13.4 16.35 -13.3 12.35 -11.7 9.75 L-12.05 10.7 -12.6 12.2 -12.45 12.0 -12.95 13.8 -12.1 12.95 -12.15 14.45 Q-12.0 13.0 -11.4 11.8 L-10.9 10.95 Q-8.9 8.0 -4.0 7.15 -5.7 7.5 -7.15 8.15 -12.05 10.4 -12.2 15.35 L-12.2 16.0 -12.2 16.1 -12.1 16.15 Q-8.55 17.45 0.55 17.35 9.25 17.25 11.35 16.2 11.75 13.7 11.05 11.85 L9.9 10.05 Q7.05 7.0 -0.65 6.75 M4.15 20.15 Q3.5 19.4 1.55 19.15 L1.4 20.85 0.65 20.8 -3.75 21.3 -3.55 20.45 Q-2.75 19.05 0.3 19.05 3.25 19.0 4.15 20.15" fill="#777474" fill-rule="evenodd" stroke="none"/>
      <path d="M-7.4 7.45 Q-6.4 7.0 -5.1 6.7 1.4 5.1 7.6 7.3 9.95 8.65 10.55 9.6 11.0 10.25 11.1 12.0 9.15 6.75 -0.65 6.75 L-2.2 6.85 -2.85 6.95 -4.0 7.15 Q-8.9 8.0 -10.9 10.95 L-10.45 10.05 Q-8.7 8.2 -7.4 7.45 M-11.4 11.8 Q-12.0 13.0 -12.15 14.45 L-12.1 12.95 -11.4 11.8 M-13.4 16.35 Q-8.55 18.4 -3.85 19.15 L-4.5 20.0 -4.65 20.3 -8.2 19.7 -8.4 19.65 -8.65 19.55 Q-13.4 18.3 -13.4 16.95 L-13.4 16.35 M4.95 19.35 Q8.95 18.85 12.8 17.4 L12.85 17.35 12.75 17.8 Q11.9 19.3 6.95 20.25 L5.45 20.45 5.0 19.4 4.95 19.35 M4.15 20.15 L4.2 20.25 4.5 21.4 Q3.3 20.9 1.4 20.85 L1.55 19.15 Q3.5 19.4 4.15 20.15" fill="#494646" fill-rule="evenodd" stroke="none"/>
      <path d="M-4.7 5.4 Q-6.4 5.75 -7.9 6.45 L-9.35 7.2 -8.65 6.7 -7.1 6.0 -6.25 5.7 -5.4 5.5 -4.7 5.4" fill="#cccccc" fill-rule="evenodd" stroke="none"/>
      <path d="M-12.45 12.0 L-12.6 12.2 -12.05 10.7 -11.7 9.75 Q-10.9 8.15 -9.35 7.2 L-7.9 6.45 Q-6.4 5.75 -4.7 5.4 L-4.6 5.35 -4.55 5.35 -4.1 5.25 0.15 4.95 -0.65 5.15 Q-6.75 6.5 -8.05 7.4 -9.9 8.6 -12.45 12.0 M-2.05 22.55 Q-2.7 23.2 -2.75 24.65 L-2.65 26.0 -5.8 27.35 Q-4.9 23.3 -2.05 22.55" fill="#ffffff" fill-rule="evenodd" stroke="none"/>
      <path d="M1.4 20.85 Q3.3 20.9 4.5 21.4 5.35 21.75 5.85 22.25 L6.3 22.75 Q7.85 25.2 7.4 30.3 L7.35 30.5 Q6.75 32.5 3.85 33.35 L-1.65 33.75 Q-6.85 32.9 -7.3 29.7 L-7.4 28.45 Q-7.4 23.9 -5.2 22.15 -4.9 21.85 -4.45 21.65 L-3.75 21.3 0.65 20.8 1.4 20.85 M6.4 28.3 Q6.4 25.3 5.4 23.55 L5.2 23.35 4.8 23.0 Q3.5 22.0 0.55 22.0 -2.95 21.95 -3.85 22.7 -5.25 23.4 -5.9 25.75 -6.35 27.4 -6.3 28.85 L-6.25 29.2 -6.25 30.15 Q-4.05 33.2 1.3 32.65 3.6 32.55 4.9 31.75 6.6 30.95 6.65 29.45 L6.65 29.2 6.4 28.3 M-6.65 29.8 L-6.3 28.85 -6.65 29.8 M6.95 30.15 L6.65 29.2 6.95 30.15" fill="#050505" fill-rule="evenodd" stroke="none"/>
      <path d="M4.8 23.0 Q4.1 22.5 2.9 22.25 3.3 24.8 3.3 26.6 L2.3 26.7 -3.15 26.95 Q-3.95 27.15 -4.45 27.45 -5.75 27.95 -6.3 28.85 -5.75 27.95 -4.45 27.45 -5.9 28.05 -6.25 29.05 L-6.25 29.2 -6.3 28.85 Q-6.35 27.4 -5.9 25.75 -5.25 23.4 -3.85 22.7 -2.95 21.95 0.55 22.0 3.5 22.0 4.8 23.0 M-2.05 22.55 Q-4.9 23.3 -5.8 27.35 L-2.65 26.0 -2.75 24.65 Q-2.7 23.2 -2.05 22.55" fill="#bcbcbc" fill-rule="evenodd" stroke="none"/>
      <path d="M2.3 26.7 L3.3 26.6 Q3.3 24.8 2.9 22.25 4.1 22.5 4.8 23.0 L5.2 23.35 5.4 23.55 Q6.4 25.3 6.4 28.3 5.6 26.95 2.7 26.75 L2.3 26.7" fill="#727272" fill-rule="evenodd" stroke="none"/>
      <path d="M2.3 26.7 L2.7 26.75 Q5.6 26.95 6.4 28.3 L6.65 29.2 6.65 29.45 Q6.6 30.95 4.9 31.75 3.6 32.55 1.3 32.65 -4.05 33.2 -6.25 30.15 L-6.25 29.2 -6.25 29.05 Q-5.9 28.05 -4.45 27.45 -3.95 27.15 -3.15 26.95 L2.3 26.7 M6.65 29.2 L6.4 28.7 Q5.2 27.05 1.85 26.8 L0.2 26.7 Q-2.8 26.7 -4.45 27.45 -2.8 26.7 0.2 26.7 L1.85 26.8 Q5.2 27.05 6.4 28.7 L6.65 29.2" fill="#514d4d" fill-rule="evenodd" stroke="none"/>
      <path d="M0.55 16.4 L3.65 11.35 5.4 8.0 3.7 7.7 1.7 11.75 0.5 14.45 -0.5 16.4 Q-9.85 16.55 -11.6 15.55 -11.8 11.1 -6.85 8.6 -4.85 7.55 -3.05 7.15 L-0.05 6.9 1.6 7.0 Q3.8 7.25 5.9 8.15 11.15 10.4 11.0 15.45 L3.7 16.3 5.9 13.05 7.55 10.05 Q7.75 9.35 7.55 9.1 7.15 8.75 6.3 8.75 L6.3 8.85 Q5.85 9.4 3.45 15.0 L2.8 16.35 0.55 16.4 M-5.25 8.6 L-8.5 15.6 -6.65 16.2 -6.6 16.2 -4.95 13.75 -1.5 7.5 -2.05 7.4 -4.1 7.75 -5.35 8.75 -5.25 8.6" fill="#02d1b8" fill-opacity="0.2901961" fill-rule="evenodd" stroke="none"/>
      <path d="M-6.3 28.85 Q-5.75 27.95 -4.45 27.45 -2.8 26.7 0.2 26.7 L1.85 26.8 Q5.2 27.05 6.4 28.7 L6.65 29.2 6.95 30.15 M-6.3 28.85 L-6.65 29.8" fill="none" stroke="#050505" stroke-linecap="round" stroke-linejoin="round" stroke-width="1.0"/>
    </g>
  </defs>
</svg>
